svgs/sharp-regular/divide.svg

<svg xmlns="http://www.w3.org/2000/svg" viewBox="0 0 448 512"><!--! Font Awesome Pro 6.6.0 by @fontawesome - https://fontawesome.com License - https://fontawesome.com/license (Commercial License) Copyright 2024 Fonticons, Inc. --><path d="M256 64l0 64-64 0 0-64 64 0zM432 280l-24 0L40 280l-24 0 0-48 24 0 368 0 24 0 0 48zM192 384l64 0 0 64-64 0 0-64z"/></svg>

<svg xmlns="http://www.w3.org/2000/svg" viewBox="0 0 448 512"><!--! Font Awesome Pro 6.4.0 by @fontawesome - https://fontawesome.com License - https://fontawesome.com/license (Commercial License) Copyright 2023 Fonticons, Inc. --><path d="M256 64v64H192V64h64zM432 280H408 40 16V232H40 408h24v48zM192 384h64v64H192V384z"/></svg>
